X: 16626
T: Hanging By One Nut
R: polka
M: 2/4
K: Bminor
dB Bd|c/d/e/c/ AB/c/|dB df|e2 a>g|
fd df|e/f/g/e/ BB/d/|cA FA|1 B2 B>c:|2 B2 B2||
|:c>c cd|ed cA|za2 g|fede|
fd df|e/f/g/e/ BB/d/|cA FA|B2 B2:|

